flaticon/constructions/socket-10.svg

<svg xmlns="http://www.w3.org/2000/svg" width="32" height="32" viewBox="0 0 24 24">
    <path d="M 21.601562 3.199219 L 2.398438 3.199219 C 1.078125 3.199219 0 4.28125 0 5.601562 L 0 18.398438 C 0 19.71875 1.078125 20.800781 2.398438 20.800781 L 21.601562 20.800781 C 22.921875 20.800781 24 19.71875 24 18.398438 L 24 5.601562 C 24 4.28125 22.921875 3.199219 21.601562 3.199219 Z M 23.199219 18.398438 C 23.199219 19.28125 22.480469 20 21.601562 20 L 2.398438 20 C 1.519531 20 0.800781 19.28125 0.800781 18.398438 L 0.800781 5.601562 C 0.800781 4.71875 1.519531 4 2.398438 4 L 21.601562 4 C 22.480469 4 23.199219 4.71875 23.199219 5.601562 Z M 23.199219 18.398438"/>
    <path d="M 21 4.800781 L 3 4.800781 C 2.238281 4.800781 1.601562 5.441406 1.601562 6.199219 L 1.601562 17.800781 C 1.601562 18.558594 2.238281 19.199219 3 19.199219 L 21 19.199219 C 21.761719 19.199219 22.398438 18.558594 22.398438 17.800781 L 22.398438 6.199219 C 22.398438 5.441406 21.761719 4.800781 21 4.800781 Z M 21.601562 17.800781 C 21.601562 18.121094 21.320312 18.398438 21 18.398438 L 3 18.398438 C 2.679688 18.398438 2.398438 18.121094 2.398438 17.800781 L 2.398438 6.199219 C 2.398438 5.878906 2.679688 5.601562 3 5.601562 L 21 5.601562 C 21.320312 5.601562 21.601562 5.878906 21.601562 6.199219 Z M 21.601562 17.800781"/>
    <path d="M10.800781 8L3.601562 8C3.359375 8 3.199219 8.160156 3.199219 8.398438L3.199219 15.601562C3.199219 15.839844 3.359375 16 3.601562 16L10.800781 16C11.039062 16 11.199219 15.839844 11.199219 15.601562L11.199219 8.398438C11.199219 8.160156 11.039062 8 10.800781 8zM10.398438 15.199219L4 15.199219 4 8.800781 10.398438 8.800781zM20.398438 8L13.199219 8C12.960938 8 12.800781 8.160156 12.800781 8.398438L12.800781 15.601562C12.800781 15.839844 12.960938 16 13.199219 16L20.398438 16C20.640625 16 20.800781 15.839844 20.800781 15.601562L20.800781 8.398438C20.800781 8.160156 20.640625 8 20.398438 8zM20 15.199219L13.601562 15.199219 13.601562 8.800781 20 8.800781zM20 15.199219"/>
    <path d="M5.601562 11.601562C5.839844 11.601562 6 11.441406 6 11.199219L6 10C6 9.761719 5.839844 9.601562 5.601562 9.601562 5.359375 9.601562 5.199219 9.761719 5.199219 10L5.199219 11.199219C5.199219 11.441406 5.359375 11.601562 5.601562 11.601562zM8.800781 11.601562C9.039062 11.601562 9.199219 11.441406 9.199219 11.199219L9.199219 10C9.199219 9.761719 9.039062 9.601562 8.800781 9.601562 8.558594 9.601562 8.398438 9.761719 8.398438 10L8.398438 11.199219C8.398438 11.441406 8.558594 11.601562 8.800781 11.601562zM7.199219 14.398438C7.441406 14.398438 7.601562 14.238281 7.601562 14L7.601562 13.199219C7.601562 12.960938 7.441406 12.800781 7.199219 12.800781 6.960938 12.800781 6.800781 12.960938 6.800781 13.199219L6.800781 14C6.800781 14.238281 6.960938 14.398438 7.199219 14.398438zM15.199219 11.601562C15.441406 11.601562 15.601562 11.441406 15.601562 11.199219L15.601562 10C15.601562 9.761719 15.441406 9.601562 15.199219 9.601562 14.960938 9.601562 14.800781 9.761719 14.800781 10L14.800781 11.199219C14.800781 11.441406 14.960938 11.601562 15.199219 11.601562zM18.398438 11.601562C18.640625 11.601562 18.800781 11.441406 18.800781 11.199219L18.800781 10C18.800781 9.761719 18.640625 9.601562 18.398438 9.601562 18.160156 9.601562 18 9.761719 18 10L18 11.199219C18 11.441406 18.160156 11.601562 18.398438 11.601562zM16.800781 14.398438C17.039062 14.398438 17.199219 14.238281 17.199219 14L17.199219 13.199219C17.199219 12.960938 17.039062 12.800781 16.800781 12.800781 16.558594 12.800781 16.398438 12.960938 16.398438 13.199219L16.398438 14C16.398438 14.238281 16.558594 14.398438 16.800781 14.398438zM16.800781 14.398438"/>
</svg>

<svg xmlns="http://www.w3.org/2000/svg" width="32" height="32" viewBox="0 0 24 24">
    <path d="M21.602 3.2H2.398A2.407 2.407 0 0 0 0 5.601v12.796a2.407 2.407 0 0 0 2.398 2.403h19.204A2.407 2.407 0 0 0 24 18.398V5.602a2.407 2.407 0 0 0-2.398-2.403zm1.597 15.198c0 .883-.719 1.602-1.597 1.602H2.398a1.603 1.603 0 0 1-1.597-1.602V5.602C.8 4.719 1.52 4 2.398 4h19.204c.878 0 1.597.719 1.597 1.602zm0 0"/>
    <path d="M21 4.8H3c-.762 0-1.398.641-1.398 1.4v11.6c0 .759.636 1.4 1.398 1.4h18c.762 0 1.398-.641 1.398-1.4V6.2c0-.759-.636-1.4-1.398-1.4zm.602 13c0 .321-.282.598-.602.598H3a.614.614 0 0 1-.602-.597V6.199c0-.32.282-.597.602-.597h18c.32 0 .602.277.602.597zm0 0"/>
    <path d="M10.8 8H3.603c-.243 0-.403.16-.403.398v7.204c0 .238.16.398.403.398H10.8c.238 0 .398-.16.398-.398V8.398c0-.238-.16-.398-.398-.398zm-.402 7.2H4V8.8h6.398zm0 0M20.398 8H13.2c-.238 0-.398.16-.398.398v7.204c0 .238.16.398.398.398h7.2c.242 0 .402-.16.402-.398V8.398c0-.238-.16-.398-.403-.398zM20 15.2h-6.398V8.8H20zm0 0"/>
    <path d="M5.602 11.602c.238 0 .398-.16.398-.403V10c0-.238-.16-.398-.398-.398-.243 0-.403.16-.403.398v1.2c0 .241.16.402.403.402zm0 0M8.8 11.602c.24 0 .4-.16.4-.403V10c0-.238-.16-.398-.4-.398-.241 0-.402.16-.402.398v1.2c0 .241.16.402.403.402zm0 0M7.2 14.398c.241 0 .402-.16.402-.398v-.8c0-.24-.16-.4-.403-.4-.238 0-.398.16-.398.4v.8c0 .238.16.398.398.398zm0 0M15.2 11.602c.241 0 .402-.16.402-.403V10c0-.238-.16-.398-.403-.398-.238 0-.398.16-.398.398v1.2c0 .241.16.402.398.402zm0 0M18.398 11.602c.243 0 .403-.16.403-.403V10c0-.238-.16-.398-.403-.398-.238 0-.398.16-.398.398v1.2c0 .241.16.402.398.402zm0 0M16.8 14.398c.24 0 .4-.16.4-.398v-.8c0-.24-.16-.4-.4-.4-.241 0-.402.16-.402.4v.8c0 .238.16.398.403.398zm0 0"/>
</svg>
